public/JavaScript.svg

<svg width="50" height="50" viewBox="0 0 50 50" fill="none" xmlns="http://www.w3.org/2000/svg">
<path d="M0 0V50H50V0H0ZM27.2107 38.9947C27.2107 43.8607 24.3536 46.0821 20.1911 46.0821C16.4303 46.0821 14.2536 44.1411 13.1376 41.7857L16.9661 39.475C17.7036 40.7803 18.3732 41.8857 19.9911 41.8857C21.5303 41.8857 22.5124 41.2821 22.5124 38.9286V22.9571H27.2107V38.9947ZM38.325 46.0821C33.9607 46.0821 31.1374 44.0071 29.7643 41.2821L33.5929 39.0732C34.5982 40.7143 35.9143 41.9303 38.225 41.9303C40.1661 41.9303 41.4179 40.9589 41.4179 39.6089C41.4179 38.0018 40.1447 37.4321 37.9911 36.4839L36.8197 35.9821C33.4268 34.5429 31.1839 32.7232 31.1839 28.8947C31.1839 25.3679 33.8732 22.6893 38.0589 22.6893C41.05 22.6893 43.1929 23.7268 44.7339 26.45L41.0732 28.7947C40.2697 27.3553 39.3982 26.7857 38.0482 26.7857C36.6768 26.7857 35.8053 27.6571 35.8053 28.7947C35.8053 30.2018 36.6768 30.7697 38.6964 31.6518L39.8679 32.1536C43.8643 33.8607 46.1071 35.6143 46.1071 39.5411C46.1071 43.7607 42.7803 46.0803 38.3268 46.0803L38.325 46.0821Z" fill="#1096E1"/>
</svg>

<svg xmlns="http://www.w3.org/2000/svg" width="50" height="50" fill="none" xmlns:v="https://vecta.io/nano"><path d="M0 0v50h50V0H0zm27.211 38.995c0 4.866-2.857 7.087-7.02 7.087-3.761 0-5.937-1.941-7.053-4.296l3.829-2.311c.738 1.305 1.407 2.411 3.025 2.411 1.539 0 2.521-.604 2.521-2.957V22.957h4.698v16.038zm11.114 7.087c-4.364 0-7.188-2.075-8.561-4.8l3.829-2.209c1.005 1.641 2.321 2.857 4.632 2.857 1.941 0 3.193-.971 3.193-2.321 0-1.607-1.273-2.177-3.427-3.125l-1.171-.502c-3.393-1.439-5.636-3.259-5.636-7.087 0-3.527 2.689-6.205 6.875-6.205 2.991 0 5.134 1.038 6.675 3.761l-3.661 2.345c-.803-1.439-1.675-2.009-3.025-2.009-1.371 0-2.243.871-2.243 2.009 0 1.407.871 1.975 2.891 2.857l1.172.502c3.996 1.707 6.239 3.461 6.239 7.388 0 4.22-3.327 6.539-7.78 6.539l-.002.002z" fill="#1096e1"/></svg>
